apps/filecoin-site/public/assets/logos/aethir-logo.svg

<svg width="100%" style="height: 24px" fill="none" viewBox="0 0 118 24" xmlns="http://www.w3.org/2000/svg">
<mask id="mask0_546_59871" style="mask-type:luminance" maskUnits="userSpaceOnUse" x="34" y="0" width="84" height="24">
<path d="M117.274 0H34.311V24H117.274V0Z" fill="white"/>
</mask>
<g mask="url(#mask0_546_59871)">
<path d="M103.767 4.35832C104.971 4.35832 105.948 3.38268 105.948 2.17916C105.948 0.975638 104.971 0 103.767 0C102.562 0 101.586 0.975638 101.586 2.17916C101.586 3.38268 102.562 4.35832 103.767 4.35832Z" fill="#9F9FA9"/>
<path d="M43.2611 0.748047L34.311 23.5135H38.2489L40.6629 17.2693H49.9879L52.3741 23.5135H56.3447L47.3946 0.748047H43.2611ZM45.2464 4.97607H45.3768L48.9024 14.1145H41.7191L45.2448 4.97607H45.2464Z" fill="#9F9FA9"/>
<path d="M68.5989 7.83643C67.3731 7.03518 65.8818 6.63281 64.1229 6.63281C62.3643 6.63281 61.0032 6.99112 59.7775 7.70615C58.5518 8.42118 57.6081 9.44067 56.9463 10.7632C56.2846 12.0857 55.9536 13.6036 55.9536 15.3169C55.9536 17.0303 56.2846 18.602 56.9463 19.9032C57.6081 21.2046 58.5567 22.2127 59.7938 22.9277C61.031 23.6426 62.4735 24.0009 64.1229 24.0009C65.4677 24.0009 66.6559 23.7778 67.6861 23.3348C68.7162 22.8903 69.5572 22.2681 70.2093 21.4651C70.8595 20.6639 71.3045 19.742 71.5443 18.7013H68.0935C67.8767 19.3512 67.4319 19.9163 66.7587 20.3918C66.0855 20.869 65.2069 21.1068 64.1229 21.1068C62.5827 21.1068 61.3993 20.571 60.5746 19.4977C59.9373 18.6687 59.5738 17.5888 59.4809 16.2616H71.7055C71.9435 14.3756 71.792 12.6997 71.2509 11.2371C70.7081 9.77292 69.8246 8.641 68.5989 7.83801V7.83643ZM60.0221 12.0319C60.3904 11.1866 60.9168 10.5416 61.5998 10.0971C62.2828 9.65243 63.0815 9.43088 63.9927 9.43088C65.0341 9.43088 65.9012 9.67517 66.5957 10.1622C67.2901 10.6508 67.7725 11.3006 68.0447 12.1134C68.2109 12.6117 68.2876 13.1475 68.2794 13.7225H59.5673C59.6471 13.1068 59.7986 12.5434 60.0221 12.0319Z" fill="#9F9FA9"/>
<path d="M96.541 7.39957C95.6298 6.88982 94.5443 6.63574 93.286 6.63574C91.8745 6.63574 90.7155 6.94999 89.8028 7.57864C89.1394 8.03627 88.5982 8.65845 88.1761 9.43855V0.748047H84.6929V23.5135H88.1761V15.4159C88.1761 13.5086 88.5608 12.0722 89.3317 11.1064C90.1011 10.1422 91.159 9.65852 92.5052 9.65852C93.6331 9.65852 94.4791 10.0006 95.0432 10.6829C95.6071 11.3654 95.8891 12.4125 95.8891 13.8214V23.5119H99.3722V13.1048C99.3722 11.7382 99.1277 10.5738 98.6404 9.60956C98.1514 8.6455 97.4521 7.90773 96.541 7.39783V7.39957Z" fill="#9F9FA9"/>
<path d="M105.524 7.12305H102.041V23.514H105.524V7.12305Z" fill="#9F9FA9"/>
<path d="M112.001 7.12305C110.829 7.12305 109.929 7.43729 109.3 8.06595C108.671 8.6946 108.356 9.5936 108.356 10.7647V23.5123H111.84V10.1149H117.276V7.12305H112.003H112.001Z" fill="#9F9FA9"/>
<path d="M77.2572 2.04883H73.7739V19.8698C73.7739 21.0407 74.0885 21.9397 74.7176 22.5684C75.3467 23.1972 76.2465 23.5114 77.4184 23.5114H82.6915V20.5196H77.2554V10.1123H82.6915V7.12047H77.2554V2.04883H77.2572Z" fill="#9F9FA9"/>
</g>
<mask id="mask1_546_59871" style="mask-type:luminance" maskUnits="userSpaceOnUse" x="0" y="0" width="30" height="24">
<path d="M29.524 0.740234H0.537598V23.4727H29.524V0.740234Z" fill="white"/>
</mask>
<g mask="url(#mask1_546_59871)">
<path d="M18.0889 0.740234H11.9702C11.2653 0.740234 10.6232 1.14208 10.3175 1.77375L7.18942 8.2365C6.79795 9.04486 7.38965 9.98239 8.29166 9.98239H12.513C13.1001 9.98239 13.6351 9.64745 13.8905 9.12081L15.0295 6.76774L20.8654 18.8227L12.9807 13.1422C12.6674 12.9171 12.2913 12.7951 11.9044 12.7951H6.13282C5.42805 12.7951 4.78597 13.197 4.4801 13.8287L0.659382 21.7269C0.268073 22.5351 0.859775 23.4728 1.76178 23.4728H5.98312C6.57008 23.4728 7.10525 23.1378 7.3606 22.6112L10.4626 16.2032L19.0092 22.6766C19.6911 23.1926 20.5228 23.4728 21.379 23.4728H28.2988C29.2008 23.4728 29.7925 22.5351 29.4012 21.7269L19.7416 1.77375C19.4358 1.14208 18.7937 0.740234 18.0889 0.740234Z" fill="#9F9FA9"/>
</g>
</svg>

<svg xmlns="http://www.w3.org/2000/svg" fill="currentColor" style="height:24px" viewBox="0 0 118 24"><mask id="a" width="84" height="24" x="34" y="0" maskUnits="userSpaceOnUse" style="mask-type:luminance"><path fill="#fff" d="M117.274 0H34.311v24h82.963V0Z"/></mask><g fill="#9F9FA9" mask="url(#a)"><path d="M103.767 4.358a2.18 2.18 0 0 0 2.181-2.179 2.18 2.18 0 0 0-4.362 0 2.18 2.18 0 0 0 2.181 2.18ZM43.261.748l-8.95 22.765h3.938l2.414-6.244h9.325l2.386 6.245h3.97L47.395.748h-4.133Zm1.985 4.228h.13l3.526 9.139H41.72l3.526-9.139h.001ZM68.599 7.836c-1.226-.8-2.717-1.203-4.476-1.203s-3.12.358-4.346 1.073c-1.225.715-2.169 1.735-2.83 3.057-.662 1.323-.993 2.84-.993 4.554 0 1.713.33 3.285.992 4.586.662 1.302 1.61 2.31 2.848 3.025 1.237.715 2.68 1.073 4.329 1.073 1.345 0 2.533-.223 3.563-.666 1.03-.445 1.871-1.067 2.523-1.87a6.717 6.717 0 0 0 1.335-2.764h-3.45c-.217.65-.662 1.215-1.335 1.69-.674.478-1.552.716-2.636.716-1.54 0-2.724-.536-3.548-1.61-.638-.828-1.001-1.908-1.094-3.235h12.224c.239-1.886.087-3.562-.454-5.025-.543-1.464-1.426-2.596-2.652-3.399v-.002Zm-8.577 4.196c.368-.845.895-1.49 1.578-1.935.683-.445 1.481-.666 2.393-.666 1.041 0 1.908.244 2.603.731a3.8 3.8 0 0 1 1.449 1.951c.166.499.243 1.035.234 1.61h-8.712c.08-.616.232-1.18.455-1.691ZM96.541 7.4c-.911-.51-1.997-.764-3.255-.764-1.412 0-2.57.314-3.483.943-.664.457-1.205 1.08-1.627 1.86V.748h-3.483v22.765h3.483v-8.097c0-1.907.385-3.344 1.156-4.31.77-.964 1.827-1.447 3.173-1.447 1.128 0 1.974.342 2.538 1.024.564.682.846 1.73.846 3.138v9.69h3.483V13.106c0-1.367-.244-2.531-.732-3.495-.489-.964-1.188-1.702-2.099-2.212V7.4ZM105.524 7.123h-3.483v16.391h3.483V7.124ZM112.001 7.123c-1.172 0-2.072.314-2.701.943s-.944 1.528-.944 2.699v12.747h3.484V10.115h5.436V7.123H112.001ZM77.257 2.049h-3.483v17.82c0 1.172.314 2.07.944 2.7.629.628 1.528.942 2.7.942h5.273V20.52h-5.436V10.112h5.437V7.12h-5.437V2.05h.002Z"/></g><mask id="b" width="30" height="24" x="0" y="0" maskUnits="userSpaceOnUse" style="mask-type:luminance"><path fill="#fff" d="M29.524.74H.538v22.733h28.986V.74Z"/></mask><g mask="url(#b)"><path fill="#9F9FA9" d="M18.089.74H11.97c-.705 0-1.347.402-1.652 1.034L7.189 8.237c-.391.808.2 1.745 1.103 1.745h4.221a1.53 1.53 0 0 0 1.377-.861l1.14-2.353 5.835 12.055-7.884-5.68a1.844 1.844 0 0 0-1.077-.348H6.133c-.705 0-1.347.402-1.653 1.034L.66 21.727c-.392.808.2 1.746 1.102 1.746h4.221a1.53 1.53 0 0 0 1.378-.862l3.102-6.408 8.546 6.474a3.927 3.927 0 0 0 2.37.796h6.92c.902 0 1.494-.938 1.102-1.746l-9.66-19.953A1.835 1.835 0 0 0 18.09.74Z"/></g></svg>
